X:42
T:Musta Rudolf  (Black Rudolf)
M:3/4
L:1/4
Q:1/4=160
R:waltz
K:G
"D7" D | "G" G G G | G A>G | G3 | D2 D |
G G G | B A>G | "D7" (A3 | A) z D | !
c B>A | c B>A | c3 | D2 D |
c B>A | c B>A | "G" (B3 | B) z G | !
|: "C" c c c | e d>c | c3 | G2 A |
"G" B A>G | B A>G | (B3 | B) z B | "D7" A E>A | !
A B>A | "G" G3 | D2 G | "D7" A D>F |
[1 A B>A | "G" G3 | G) z G :|[2 A B>D | "G" (G3 | G) z z ||
